src/assets/images/foodTakeawayPackaging.svg

<svg width="46" height="46" viewBox="0 0 46 46" fill="none" xmlns="http://www.w3.org/2000/svg">
<path d="M2.29691 22.348C2.36294 21.5768 2.60886 20.8319 3.01491 20.173C3.91291 18.703 5.71891 15.889 7.72691 13.546C7.72691 13.546 7.64791 10.355 7.59191 7.188C7.56471 5.91974 8.03652 4.6915 8.90581 3.7676C9.77509 2.84371 10.9723 2.29803 12.2399 2.248C15.1999 2.126 19.1739 2 22.9999 2C26.8259 2 30.7989 2.126 33.7599 2.248C35.0273 2.29829 36.2243 2.84408 37.0934 3.76794C37.9624 4.69181 38.4341 5.91991 38.4069 7.188C38.3685 9.30746 38.3239 11.4268 38.2729 13.546C40.2819 15.889 42.0869 18.703 42.9849 20.174C43.3899 20.836 43.6369 21.573 43.7019 22.347C43.8959 24.647 44.2219 30.39 43.7779 39.946C43.7324 40.9264 43.32 41.8539 42.6226 42.5444C41.9252 43.235 40.9937 43.6382 40.0129 43.674C36.2729 43.814 29.9819 44 22.9999 44C16.0179 44 9.72691 43.814 5.98691 43.674C5.00611 43.6382 4.0746 43.235 3.37719 42.5444C2.67978 41.8539 2.26742 40.9264 2.22191 39.946C1.77891 30.391 2.10391 24.647 2.29691 22.348Z" stroke="#C19F74" stroke-width="3" stroke-linecap="round" stroke-linejoin="round"/>
<path d="M26.999 22.334C26.6427 23.1954 26.3812 24.093 26.219 25.011C25.67 28.07 27.933 31 31.043 31C34.133 31 36.318 28.04 35.691 25.013C35.484 24.0003 35.1619 23.0146 34.731 22.075C34.08 20.672 32.588 20 31.042 20C29.325 20 27.658 20.748 26.998 22.334H26.999Z" stroke="#C19F74" stroke-width="3" stroke-linecap="round"/>
<path d="M14.0099 9.905C14.0439 8.865 14.8529 8.183 15.8929 8.132C17.2129 8.067 19.4419 8 22.9999 8C26.5579 8 28.7869 8.067 30.1069 8.132C31.1469 8.183 31.9559 8.865 31.9899 9.905C32.0032 10.3016 32.0032 10.6984 31.9899 11.095C31.9549 12.135 31.1469 12.817 30.1069 12.868C28.7869 12.933 26.5579 13 22.9999 13C19.4419 13 17.2129 12.933 15.8929 12.868C14.8529 12.817 14.0439 12.135 14.0089 11.095C13.9957 10.6984 13.9957 10.3016 14.0089 9.905H14.0099Z" stroke="#C19F74" stroke-width="3" stroke-linecap="round" stroke-linejoin="round"/>
<path d="M15 20V38" stroke="#C19F74" stroke-width="3" stroke-linecap="round" stroke-linejoin="round"/>
<path d="M31 31V38" stroke="#C19F74" stroke-width="3" stroke-linecap="round" stroke-linejoin="round"/>
<path d="M10.4998 20L10.1928 25.995C10.0848 28.103 11.6348 29.927 13.7448 29.983C14.5817 30.0051 15.419 30.0051 16.2558 29.983C18.3658 29.927 19.9158 28.103 19.8078 25.996L19.4998 20" stroke="#C19F74" stroke-width="3" stroke-linecap="round" stroke-linejoin="round"/>
</svg>

<svg xmlns="http://www.w3.org/2000/svg" width="46" height="46" fill="none"><path stroke="#C19F74" stroke-linecap="round" stroke-linejoin="round" stroke-width="3" d="M2.297 22.348a4.95 4.95 0 0 1 .718-2.175c.898-1.47 2.704-4.284 4.712-6.627 0 0-.08-3.191-.135-6.358a4.84 4.84 0 0 1 4.648-4.94C15.2 2.126 19.174 2 23 2s7.799.126 10.76.248a4.84 4.84 0 0 1 4.647 4.94q-.057 3.18-.134 6.358c2.009 2.343 3.814 5.157 4.712 6.628.405.662.652 1.399.717 2.173.194 2.3.52 8.043.076 17.599a3.91 3.91 0 0 1-3.765 3.728C36.273 43.814 29.982 44 23 44s-13.273-.186-17.013-.326a3.91 3.91 0 0 1-3.765-3.728c-.443-9.555-.118-15.299.075-17.598"/><path stroke="#C19F74" stroke-linecap="round" stroke-width="3" d="M26.999 22.334a13 13 0 0 0-.78 2.677C25.67 28.07 27.933 31 31.043 31c3.09 0 5.275-2.96 4.648-5.987a13.6 13.6 0 0 0-.96-2.938C34.08 20.672 32.588 20 31.042 20c-1.717 0-3.384.748-4.044 2.334z"/><path stroke="#C19F74" stroke-linecap="round" stroke-linejoin="round" stroke-width="3" d="M14.01 9.905c.034-1.04.843-1.722 1.883-1.773C17.213 8.067 19.442 8 23 8s5.787.067 7.107.132c1.04.051 1.849.733 1.883 1.773q.02.595 0 1.19c-.035 1.04-.843 1.722-1.883 1.773-1.32.065-3.55.132-7.107.132s-5.787-.067-7.107-.132c-1.04-.051-1.85-.733-1.884-1.773a18 18 0 0 1 0-1.19zM15 20v18M31 31v7M10.5 20l-.307 5.995c-.108 2.108 1.442 3.932 3.552 3.988q1.256.033 2.51 0c2.11-.056 3.66-1.88 3.553-3.987L19.5 20"/></svg>
